FINK
CUT[DA BIN ICH GERN WO FROHE SAENGER WEILEN]
REG[Europa, Mitteleuropa, Deutschland]
KEY[F0811  16  D 4/4]
MEL[-5__  1_.23_2_1_-7_1_-6_  -5__.-4_-3_
    -3_-2_-3_  -4__-5__-6__-7__  1__.2_3__
    -5__  1_.23_2_1_-7_1_-6_  -5__.-4_-3_
    -3_-2_-3_  -4__2__1__-7__  1__0___
    1__  -7_.12__.-5_-5_-5_  1_.23_2_1__
    1__  -7_.12__.-5_-5_-5_  1_.23_2_1__
    -5__  1_.23_2_1_-7_1_-6_  -5__.-4_-3_
    -3_-2_-3_  -4__2__1__-7__  1__0___ //] >>
FCT[Geselligkeits - Lied]
